X: 1307
T: An Lá Nua
R: jig
M: 6/8
K: Dmajor
|:d/e/|f^ef gfg|fdB AGF|GBd FAd|Ace gfe|
f2 f gfg|fdB A>GF|GB/c/d F2 d|cec d2:|
|:A/G/|F2 d dAF|G2 e ecA|gec Aag|f/g/af ec[Aa]|
F2 d A2 d|G2 e c2 e|Ac/d/e gec|d/e/fe d2:|

